X: 492
U:~=!turn!
M:C|
L:1/8
K:D
(ABd).F E2 EA | FD-D>F ABAF | AB dF A2 A || B | Td>efd ecdB | AF dF [C2E2] [CE]e |


